X:360
T:Reel 360
M:4/4
K:Gmaj
L:1/8
GF|DGGB GAGB|decB cFAF|DGGA Bcdg| (3fed  (3cBA BGGF|DGGA BcdB|cBAB cAFA|GBBc dega|bgaf g2|d2|gfde gdBG|AFcB AFF2|gfge fgaf| (3gfe  (3def g2 (3def |gfge fgfd|cA (3ABc  (3ABc eg| (3fed  (3cBA  (3Bcd  (3efg | (3fed  (3cBA G2|
